icons/plexis/48/xsensors.svg

<svg viewBox="0 0 48 48" xmlns="http://www.w3.org/2000/svg" xmlns:xlink="http://www.w3.org/1999/xlink">
  <linearGradient id="a" gradientTransform="matrix(0 -1 1 0 -.0000015 47.999998)" gradientUnits="userSpaceOnUse" x1="1" x2="47">
    <stop offset="0" stop-color="#436769"/>
    <stop offset="1" stop-color="#4b7376"/>
  </linearGradient>
  <path d="m47 24c0 22.703-.297 23-23 23-22.703 0-23-.297-23-23 0-22.703.297-23 23-23 22.703 0 23 .297 23 23z" fill="url(#a)"/>
  <path d="m25 10a15 15 0 0 0-15 15 15 15 0 0 0  15 15 15 15 0 0 0  15-15 15 15 0 0 0-15-15m0 2a13 13 0 0 1 8.129 2.871l-2.135 2.135a10 10 0 0 0-5.994-2.006 10 10 0 0 0-5.99 2.01l-2.145-2.145a13 13 0 0 1 8.135-2.865m10.135 4.865a13 13 0 0 1 2.865 8.135 13 13 0 0 1-2.87 8.13l-2.136-2.138a10 10 0 0 0 2.006-5.992 10 10 0 0 0-2.008-5.99l2.143-2.143zm-20.264.006l2.135 2.135a10 10 0 0 0-2.006 5.994 10 10 0 0 0  2.01 5.99l-2.145 2.145a13 13 0 0 1-2.865-8.135 13 13 0 0 1  2.871-8.129m10.129.129a8 8 0 0 1 4.566 1.434l-2.18 2.18a5 5 0 0 0-2.386-.614 5 5 0 0 0-2.391.609l-2.17-2.17a8 8 0 0 1 4.561-1.439m-6.566 3.434l2.18 2.18a5 5 0 0 0-.614 2.386 5 5 0 0 0  .609 2.391l-2.171 2.17a8 8 0 0 1-1.438-4.561 8 8 0 0 1  1.434-4.566m13.13.006a8 8 0 0 1 1.436 4.56 8 8 0 0 1-1.434 4.566l-2.179-2.179a5 5 0 0 0  .613-2.387 5 5 0 0 0-.609-2.391l2.17-2.17zm-6.564 2.56l1.998 2-1.998 2-2-2zm-2.387 6.387a5 5 0 0 0 2.387.613 5 5 0 0 0  2.391-.609l2.172 2.17a8 8 0 0 1-4.563 1.439 8 8 0 0 1-4.566-1.434l2.18-2.18zm8.379 3.604l2.145 2.145a13 13 0 0 1-8.137 2.864 13 13 0 0 1-8.131-2.87l2.137-2.137a10 10 0 0 0 5.994 2.007 10 10 0 0 0  5.992-2.01" opacity=".1"/>
  <path d="m24 9a15 15 0 0 0-15 15 15 15 0 0 0  15 15 15 15 0 0 0  15-15 15 15 0 0 0-15-15zm0 2a13 13 0 0 1 13 13 13 13 0 0 1-13 13 13 13 0 0 1-13-13 13 13 0 0 1  13-13zm0 3a10 10 0 0 0-10 10 10 10 0 0 0  10 10 10 10 0 0 0  10-10 10 10 0 0 0-10-10zm0 2a8 8 0 0 1 8 8 8 8 0 0 1-8 8 8 8 0 0 1-8-8 8 8 0 0 1  8-8zm0 3a5 5 0 0 0-5 5 5 5 0 0 0  5 5 5 5 0 0 0  5-5 5 5 0 0 0-5-5zm0 3l2 2-2 2-2-2z" fill="#f9f9f9"/>
  <path d="m14.746 13.33c-.361 0-.723.139-1 .416-.554.554-.554 1.446 0 2l8.254 8.254 2-2-8.254-8.254c-.277-.277-.639-.416-1-.416zm11.252 10.67l-1.998 2 8.254 8.252c.554.554 1.446.554 2 0 .554-.554.554-1.446 0-2z" fill="#f95357"/>
  <path d="m33.25 13.33c-.361 0-.723.139-1 .416l-8.254 8.254 2 2 8.254-8.254c.554-.554.554-1.446 0-2-.277-.277-.639-.416-1-.416zm-11.254 10.67l-8.254 8.252c-.554.554-.554 1.446 0 2 .554.554 1.446.554 2 0l8.254-8.252" fill="#45da26"/>
</svg>

<svg xmlns="http://www.w3.org/2000/svg" viewBox="0 0 48 48">
 <defs>
  <linearGradient id="linearGradient3764" x1="1" x2="47" gradientUnits="userSpaceOnUse" gradientTransform="matrix(0,-1,1,0,-1.5e-6,47.999998)">
   <stop style="stop-color:#436769;stop-opacity:1"/>
   <stop offset="1" style="stop-color:#4b7376;stop-opacity:1"/>
  </linearGradient>
 </defs>
 <g>
  
  
  
 </g>
 <g>
  <path d="m 47,24 C 47,46.703 46.703,47 24,47 1.297,47 1,46.703 1,24 1,1.297 1.297,1 24,1 46.703,1 47,1.297 47,24 z" style="fill:url(#linearGradient3764);fill-opacity:1"/>
 </g>
 <path d="M 25 10 A 15 15 0 0 0 10 25 15 15 0 0 0 25 40 15 15 0 0 0 40 25 15 15 0 0 0 25 10 m 0 2 a 13 13 0 0 1 8.129 2.871 l -2.135 2.135 A 10 10 0 0 0 25 15 10 10 0 0 0 19.01 17.01 L 16.865 14.865 A 13 13 0 0 1 25 12 m 10.135 4.865 A 13 13 0 0 1 38 25 13 13 0 0 1 35.13 33.13 L 32.994 30.992 A 10 10 0 0 0 35 25 10 10 0 0 0 32.992 19.01 l 2.143 -2.143 z m -20.264 0.006 2.135 2.135 A 10 10 0 0 0 15 25 a 10 10 0 0 0 2.01 5.99 l -2.145 2.145 A 13 13 0 0 1 12 25 13 13 0 0 1 14.871 16.871 M 25 17 a 8 8 0 0 1 4.566 1.434 l -2.18 2.18 A 5 5 0 0 0 25 20 5 5 0 0 0 22.609 20.609 L 20.439 18.439 A 8 8 0 0 1 25 17 m -6.566 3.434 2.18 2.18 A 5 5 0 0 0 20 25 5 5 0 0 0 20.609 27.391 L 18.438 29.561 A 8 8 0 0 1 17 25 8 8 0 0 1 18.434 20.434 m 13.13 0.006 A 8 8 0 0 1 33 25 8 8 0 0 1 31.566 29.566 L 29.387 27.387 A 5 5 0 0 0 30 25 5 5 0 0 0 29.391 22.609 l 2.17 -2.17 z M 25 23 26.998 25 25 27 23 25 25 23 m -2.387 6.387 A 5 5 0 0 0 25 30 5 5 0 0 0 27.391 29.391 L 29.563 31.561 A 8 8 0 0 1 25 33 8 8 0 0 1 20.434 31.566 l 2.18 -2.18 z m 8.379 3.604 2.145 2.145 A 13 13 0 0 1 25 38 13 13 0 0 1 16.869 35.13 l 2.137 -2.137 A 10 10 0 0 0 25 35 10 10 0 0 0 30.992 32.99" style="fill:#000;opacity:0.1;fill-opacity:1;stroke:none"/>
 <path d="M 24 9 A 15 15 0 0 0 9 24 A 15 15 0 0 0 24 39 A 15 15 0 0 0 39 24 A 15 15 0 0 0 24 9 z M 24 11 A 13 13 0 0 1 37 24 A 13 13 0 0 1 24 37 A 13 13 0 0 1 11 24 A 13 13 0 0 1 24 11 z M 24 14 A 10 10 0 0 0 14 24 A 10 10 0 0 0 24 34 A 10 10 0 0 0 34 24 A 10 10 0 0 0 24 14 z M 24 16 A 8 8 0 0 1 32 24 A 8 8 0 0 1 24 32 A 8 8 0 0 1 16 24 A 8 8 0 0 1 24 16 z M 24 19 A 5 5 0 0 0 19 24 A 5 5 0 0 0 24 29 A 5 5 0 0 0 29 24 A 5 5 0 0 0 24 19 z M 24 22 L 26 24 L 24 26 L 22 24 L 24 22 z" style="fill:#f9f9f9;opacity:1;fill-opacity:1;stroke:none"/>
 <g>
  <g>
   <!-- color: #4b7376 -->
  </g>
 </g>
 <g>
  
 </g>
 <path d="m 14.746 13.33 c -0.361 0 -0.723 0.139 -1 0.416 -0.554 0.554 -0.554 1.446 0 2 l 8.254 8.254 2 -2 -8.254 -8.254 c -0.277 -0.277 -0.639 -0.416 -1 -0.416 z m 11.252 10.67 -1.998 2 l 8.254 8.252 c 0.554 0.554 1.446 0.554 2 0 0.554 -0.554 0.554 -1.446 0 -2 z" style="fill:#f95357;opacity:1;fill-opacity:1;stroke:none"/>
 <path d="m 33.25 13.33 c -0.361 0 -0.723 0.139 -1 0.416 l -8.254 8.254 l 2 2 8.254 -8.254 c 0.554 -0.554 0.554 -1.446 0 -2 -0.277 -0.277 -0.639 -0.416 -1 -0.416 z m -11.254 10.67 -8.254 8.252 c -0.554 0.554 -0.554 1.446 0 2 0.554 0.554 1.446 0.554 2 0 l 8.254 -8.252" style="fill:#45da26;opacity:1;fill-opacity:1;stroke:none"/>
</svg>
